X:1
T:We Wish You a Merry Christmas
C:Traditional (English)
M:3/4
L:1/4
Q:1/4=100
K:C
G G G | E G c | B A2 | G G G | E G c | B A2 | d d d | B G A | c2 z | G E C | A2 A | G2 z |]
w: We wish you a mer-ry Christ-mas | We wish you a mer-ry Christ-mas | We wish you a mer-ry Christ-mas | And a hap-py New Year |
